X: 4277
T: Bob's Hole In One
R: slip jig
M: 9/8
K: Gmajor
GGG GBA GED|AAA AB/c/d cBA|GGG GBA GED|EAE GAB GED|
GDG B2A GED|AAA AB/c/d cBA|GGG GBA GB/c/d|edB dBA GAB|
c2A BAG AGE|GGG GGE DEG|c2A BAG d2A|BAG GGD GAB|
c2A BAG AGE|GGG GGD GAB|~d3 d2A BAG|AGE EEG cBA|

